X:1
T: James Gannon's Barndance
C:
R:Reel
Q: 232
K:G
M:4/4
L:1/8
|:D|B2 AB e2 dB|d2 cA E2 FG|AA AB cA E2|GA cG D2 B,2|
B1/2c1/2B AB e2 dB|d2 cA E2 FG|AA AB cA FA|G2 g2 g3:|
|:g|e^d ef gf ga|b2 d2 d2 ((3ded) |cB AB cd ef|g2 B2 dg fg|
e^d ef gf ga|b2 d2 d2 ((3ded) |cB AB cd ef|((3gag) ga g3:|
